X:1
T:Title
%%score { ( 1 5 ) | ( 2 3 4 ) }
L:1/8
Q:1/4=100
M:12/8
K:F
V:1 treble nm="Grand Piano"
V:5 treble 
V:2 bass 
V:3 bass 
V:4 bass 
V:1
 [CFA]2 [=B,F_A] [CF=A]2 [FAd] [FAc]3 [CFA]3 | [B,EG]2 [A,F] [B,EG]2 [CEA] [A,D]3 [A,C]3 | %2
w: Edwin~H.~Bookmyer * * * * *||
 [_A,=B,]2 [=A,C] [A,CF]2 [CFA] [FAc]2 [F_A=B] [F=Ac]2 [FA^c] | %3
w: |
 [EBd]2 [CD^F] [CEG]2 [C=FA] [CGB]6 | [CEB]2 [C_EA] [=EB]2 [Be] [EBd]3 [CEG]3 | %5
w: ||
 [CFA]2 [=B,F_A] [CF=A]2 [FAd] [FAc]3 [C^FA]3 | %6
w: |
[M:27/16] [B,DB]-<[B,DB]^FG-<G_A[=F=A]-<[FA][Fd][Fc]/-[Fc]/-[Fc]/-[Fc]/-[Fc]/-[Fc]-<[Fc] | %7
w: |
[M:6/4] D2 A G2 F [A,F]6 | [EB]2 [_EA] [=EB]2 [Be] [Bd]3 [EG]3 | A2 _A =A2 d c3 [C^FA]3 | %10
w: |||
[M:27/16] [B,DB]-<[B,DB][CD^F][DG]-<[DG][D=F_A][CF=A]-<[CFA][Fd][Fc]/-[Fc]/-[Fc]/-[Fc]/-[Fc]/-[Fc]-<[Fc] | %11
w: |
[M:13/8] [=B,D]2 [B,A] [_B,G]3 [B,F][A,F]-[A,F]- [A,F]3 z |] %12
w: |
V:2
 F,,2 C, F,2 C, F,,2 C, F,2 C, | C,,2 C, C,2 C, F,,2 C, F,2 C, | F,,2 C, F,2 C, F,,2 C, F,2 C, | %3
 C,,2 C, C,2 C, C,,2 C, C,2 C, | z3 .C3 z6 | F,,2 C, F,2 C, F,,2 F, D,,2 D, | %6
[M:27/16] G,,-<G,,D,[G,B,D]-<[G,B,D] z [C,C]-<[C,C][C,B,][C,A,]/-[C,A,]/-[C,A,]/-[C,A,]/-[C,A,]/-[C,A,]-<[C,A,] | %7
[M:6/4] z2 z .E,3 z6 | [C,G,]2 [C,^F,] [C,G,]2 [C,C] [C,C]3 [C,C]3 | %9
 [F,CF]2 [F,=B,F] [F,CF]2 [F,_B,F] [F,A,F]3 D,3 | %10
[M:27/16] G,,-<G,,A,,B,,-<B,,=B,,C,-<C,[C,B,][C,A,]/-[C,A,]/-[C,A,]/-[C,A,]/-[C,A,]/-[C,A,]-<[C,A,] | %11
[M:13/8] [G,,F,]2 [G,,F,] [C,E,]3 [C,F,][F,,C,F,]-[F,,C,F,]- [F,,C,F,]3 z |] %12
V:3
 x12 | x12 | x12 | x12 | z2 C,- C, C,2 z6 | x12 |[M:27/16] x27/2 | %7
[M:6/4] [G,,F,]3 [C,B,]2- [C,F,B,] [F,,C,F,]6 | x12 | x12 |[M:27/16] x27/2 |[M:13/8] x13 |] %12
V:4
 x12 | x12 | x12 | x12 | .C,,3 z2 E C,,2 C, C,2 C, | x12 |[M:27/16] x27/2 |[M:6/4] x12 | x12 | %9
 x12 |[M:27/16] x27/2 |[M:13/8] x13 |] %12
V:5
 x12 | x12 | x12 | x12 | x12 | x12 |[M:27/16] x27/2 |[M:6/4] .=B,6 z6 | x12 | x12 | %10
[M:27/16] x27/2 |[M:13/8] x13 |] %12

